projects/flag-game/flags/Kiribati.svg

<svg viewBox="0 0 1000 500" xmlns="http://www.w3.org/2000/svg"><path d="m0 0h1000v500h-1000z" fill="#ce1126"/><g fill-rule="evenodd"><path d="m582.316406 235.480469c14.601563 3.914062 36.6875 2.9375 46.605469 14.519531-14.597656-3.914062-32.585937 19.683594-46.605469 14.519531 12.378906 8.664063-180.070312 0-164.632812 0-14.601563-3.914062-36.6875-2.945312-46.605469-14.519531 14.597656 3.914062 32.585937-19.683594 46.605469-14.519531-12.378906-8.664063-33.855469-15.371094-38.832032-29.570313 12.375 8.664063 37.5625-7.417968 48.761719 2.292969-8.667969-12.378906-26.785156-25.960937-26.375-41.070313 8.664063 12.375 37.839844 5.75 45.035157 18.839844-3.914063-14.601562-15.691407-33.425781-10.734376-47.625 3.914063 14.597656 33.292969 18.21875 35.871094 33.105469 1.320313-15.058594-3.996094-36.84375 6.203125-48.414063-1.320312 15.046876 25.21875 28.488282 22.386719 43.375 6.386719-13.695312 9.921875-35.824218 22.386719-43.375-6.386719 13.695313 14.445312 35.328126 6.203125 48.414063 10.683594-10.6875 20.996094-30.476563 35.871094-33.105469-10.6875 10.683594.707031 37.90625-10.734376 47.625 13.695313-6.390625 29.859376-21.46875 45.035157-18.839844-13.695313 6.386719-12.34375 35.902344-26.375 41.070313 15.058593-1.308594 35.289062-9.855469 48.761719-2.292969-15.050782 1.316406-23.394532 29.570313-38.832032 29.570313zm0 0" fill="#fcd116" stroke="#bd9c08" stroke-width="2.5"/><path d="m430.601562 250-52.648437-21.515625 56.828125-2.214844-42.105469-38.230469 54.15625 17.355469-26.496093-50.324219 44.964843 34.828126-7.691406-56.347657 30.339844 48.105469 12.050781-55.582031 12.042969 55.582031 30.339843-48.105469-7.691406 56.347657 44.960938-34.828126-26.492188 50.324219 54.15625-17.355469-42.105468 38.230469 56.828124 2.214844-52.644531 21.515625 52.644531 21.523438h-244.085937zm0 0" fill="#fcd116" stroke="#bd9c08" stroke-width="2.5"/><path d="m568.929688 250c0 38.070312-30.859376 68.929688-68.929688 68.929688s-68.929688-30.859376-68.929688-68.929688 30.859376-68.929688 68.929688-68.929688 68.929688 30.859376 68.929688 68.929688zm0 0" fill="#fcd116" stroke="#bd9c08" stroke-width="3"/><path d="m0 275h1000v225h-1000zm0 0" fill="#003f87"/><path d="m0 428.574219c33.332031 0 66.667969 21.425781 100 21.425781s66.667969-21.425781 100-21.425781 66.667969 21.425781 100 21.425781 66.667969-21.425781 100-21.425781 66.667969 21.425781 100 21.425781 66.667969-21.425781 100-21.425781 66.667969 21.425781 100 21.425781 66.667969-21.425781 100-21.425781 66.667969 21.425781 100 21.425781 66.667969-21.425781 100-21.425781v-35.71875c-33.332031 0-66.667969 21.425781-100 21.425781s-66.667969-21.425781-100-21.425781-66.667969 21.425781-100 21.425781-66.667969-21.425781-100-21.425781-66.667969 21.425781-100 21.425781-66.667969-21.425781-100-21.425781-66.667969 21.425781-100 21.425781-66.667969-21.425781-100-21.425781-66.667969 21.425781-100 21.425781-66.667969-21.425781-100-21.425781zm0 0" fill="#fff"/><path d="m522.664062 83.105469 36.964844.246093c.234375-1.5625-3.167968-4.679687-6.074218-5.136718-9.355469-1.464844-16.371094 1.5625-27.730469 1.675781zm0 0" fill="#fcd116" stroke="#bd9c08" stroke-width="2"/><path d="m449.046875 74.40625c8.683594 10.96875 25.511719 18.585938 41.59375 18.683594 21.664063.140625 45.6875-17.398438 74.75-22.769532l-94.867187-1.953124c-12.269532-8.40625-21.582032-7.339844-27.9375-2.125l-18.132813.546874c-2.570313 1.398438 2.117187 7.242188 5.917969 7.453126zm0 0" fill="#fcd116" stroke="#bd9c08" stroke-width="2"/><path d="m491.933594 68.113281c-3.449219-15.859375-16.175782-22.703125-31.484375-24.730469-17.675781-2.34375-58.375-4.742187-85.402344-12.507812 11.695313 11.5 36.183594 17.246094 53.199219 19.839844 18.019531 2.75 35.554687 6.757812 49.457031 17.253906zm0 0" fill="#fcd116" stroke="#bd9c08" stroke-width="2"/><path d="m480.445312 78.703125c5.65625 7.257813 14.425782 6.84375 23.851563.511719 9.398437-6.304688 19.613281-24.078125 24.542969-24.363282 34.488281-2.011718 76.207031-16.5625 96.113281-27.808593-25.230469 3.570312-50.238281 7.625-75.6875 7.722656-43.414063.171875-48.558594 19.945313-66.25 33.8125zm0 0" fill="#fcd116"/></g><path d="m480.445312 78.703125c5.65625 7.257813 14.425782 6.84375 23.851563.511719 9.398437-6.304688 19.613281-24.078125 24.542969-24.363282 34.488281-2.011718 76.207031-16.5625 96.113281-27.808593-25.230469 3.570312-50.238281 7.625-75.6875 7.722656-43.414063.171875-48.558594 19.945313-66.25 33.8125" fill="none" stroke="#bd9c08" stroke-width="2"/><path d="m487.183594 70.175781c9.25-5.902343 16.769531-13.59375 25.4375-20.011719 14.339844-10.636718 30.917968-10.949218 48.707031-11.167968 15.761719-.195313 43.40625-6.785156 58.398437-10.300782" fill="none" stroke="#bd9c08" stroke-width="2"/><path d="m477.554688 67.390625c-2.726563-14.183594-16.007813-18.441406-32.78125-20.988281-18.246094-2.773438-36.855469-4.3125-55.0625-9.34375-4.511719-1.25-8.722657-3.449219-13.082032-5.171875" fill="none" stroke="#bd9c08" stroke-width="2"/><path d="m483.375 88.304688c17.113281 1.253906 29.839844-3.886719 44.449219-11.171876" fill="none" stroke="#bd9c08" stroke-width="2"/><path d="m424.382812 69.71875h21.605469" fill="none" stroke="#bd9c08" stroke-width="2"/><path d="m455.613281 67.398438c0 1.488281-1.203125 2.703124-2.699219 2.703124-1.488281 0-2.695312-1.214843-2.695312-2.703124 0-1.496094 1.207031-2.699219 2.695312-2.699219 1.496094 0 2.699219 1.203125 2.699219 2.699219zm0 0" fill="#bd9c08" fill-rule="evenodd"/><path d="m0 285.71875c33.332031 0 66.667969 21.425781 100 21.425781s66.667969-21.425781 100-21.425781 66.667969 21.425781 100 21.425781 66.667969-21.425781 100-21.425781 66.667969 21.425781 100 21.425781 66.667969-21.425781 100-21.425781 66.667969 21.425781 100 21.425781 66.667969-21.425781 100-21.425781 66.667969 21.425781 100 21.425781 66.667969-21.425781 100-21.425781v-35.71875c-33.332031 0-66.667969 21.425781-100 21.425781s-66.667969-21.425781-100-21.425781-66.667969 21.425781-100 21.425781-66.667969-21.425781-100-21.425781-66.667969 21.425781-100 21.425781-66.667969-21.425781-100-21.425781-66.667969 21.425781-100 21.425781-66.667969-21.425781-100-21.425781-66.667969 21.425781-100 21.425781-66.667969-21.425781-100-21.425781zm0 0" fill="#fff" fill-rule="evenodd"/><path d="m0 357.144531c33.332031 0 66.667969 21.429688 100 21.429688s66.667969-21.429688 100-21.429688 66.667969 21.429688 100 21.429688 66.667969-21.429688 100-21.429688 66.667969 21.429688 100 21.429688 66.667969-21.429688 100-21.429688 66.667969 21.429688 100 21.429688 66.667969-21.429688 100-21.429688 66.667969 21.429688 100 21.429688 66.667969-21.429688 100-21.429688v-35.71875c-33.332031 0-66.667969 21.429688-100 21.429688s-66.667969-21.429688-100-21.429688-66.667969 21.429688-100 21.429688-66.667969-21.429688-100-21.429688-66.667969 21.429688-100 21.429688-66.667969-21.429688-100-21.429688-66.667969 21.429688-100 21.429688-66.667969-21.429688-100-21.429688-66.667969 21.429688-100 21.429688-66.667969-21.429688-100-21.429688zm0 0" fill="#fff" fill-rule="evenodd"/></svg>

<?xml version="1.0" encoding="UTF-8"?>
<svg xmlns="http://www.w3.org/2000/svg" xmlns:xlink="http://www.w3.org/1999/xlink" viewBox="0 0 1000 500" version="1.1">
<g id="surface650">
<rect x="0" y="0" width="1000" height="500" style="fill:rgb(80.783081%,6.666565%,14.901733%);fill-opacity:1;stroke:none;"/>
<path style="fill-rule:evenodd;fill:rgb(98.822021%,81.959534%,8.627319%);fill-opacity:1;stroke-width:2.5;stroke-linecap:butt;stroke-linejoin:miter;stroke:rgb(74.116516%,61.175537%,3.137207%);stroke-opacity:1;stroke-miterlimit:4;" d="M 582.316406 235.480469 C 596.917969 239.394531 619.003906 238.417969 628.921875 250 C 614.324219 246.085938 596.335938 269.683594 582.316406 264.519531 C 594.695312 273.183594 402.246094 264.519531 417.683594 264.519531 C 403.082031 260.605469 380.996094 261.574219 371.078125 250 C 385.675781 253.914062 403.664062 230.316406 417.683594 235.480469 C 405.304688 226.816406 383.828125 220.109375 378.851562 205.910156 C 391.226562 214.574219 416.414062 198.492188 427.613281 208.203125 C 418.945312 195.824219 400.828125 182.242188 401.238281 167.132812 C 409.902344 179.507812 439.078125 172.882812 446.273438 185.972656 C 442.359375 171.371094 430.582031 152.546875 435.539062 138.347656 C 439.453125 152.945312 468.832031 156.566406 471.410156 171.453125 C 472.730469 156.394531 467.414062 134.609375 477.613281 123.039062 C 476.292969 138.085938 502.832031 151.527344 500 166.414062 C 506.386719 152.71875 509.921875 130.589844 522.386719 123.039062 C 516 136.734375 536.832031 158.367188 528.589844 171.453125 C 539.273438 160.765625 549.585938 140.976562 564.460938 138.347656 C 553.773438 149.03125 565.167969 176.253906 553.726562 185.972656 C 567.421875 179.582031 583.585938 164.503906 598.761719 167.132812 C 585.066406 173.519531 586.417969 203.035156 572.386719 208.203125 C 587.445312 206.894531 607.675781 198.347656 621.148438 205.910156 C 606.097656 207.226562 597.753906 235.480469 582.316406 235.480469 Z M 582.316406 235.480469 "/>
<path style="fill-rule:evenodd;fill:rgb(98.822021%,81.959534%,8.627319%);fill-opacity:1;stroke-width:2.5;stroke-linecap:butt;stroke-linejoin:miter;stroke:rgb(74.116516%,61.175537%,3.137207%);stroke-opacity:1;stroke-miterlimit:4;" d="M 430.601562 250 L 377.953125 228.484375 L 434.78125 226.269531 L 392.675781 188.039062 L 446.832031 205.394531 L 420.335938 155.070312 L 465.300781 189.898438 L 457.609375 133.550781 L 487.949219 181.65625 L 500 126.074219 L 512.042969 181.65625 L 542.382812 133.550781 L 534.691406 189.898438 L 579.652344 155.070312 L 553.160156 205.394531 L 607.316406 188.039062 L 565.210938 226.269531 L 622.039062 228.484375 L 569.394531 250 L 622.039062 271.523438 L 377.953125 271.523438 Z M 430.601562 250 "/>
<path style="fill-rule:evenodd;fill:rgb(98.822021%,81.959534%,8.627319%);fill-opacity:1;stroke-width:3;stroke-linecap:butt;stroke-linejoin:miter;stroke:rgb(74.116516%,61.175537%,3.137207%);stroke-opacity:1;stroke-miterlimit:4;" d="M 568.929688 250 C 568.929688 288.070312 538.070312 318.929688 500 318.929688 C 461.929688 318.929688 431.070312 288.070312 431.070312 250 C 431.070312 211.929688 461.929688 181.070312 500 181.070312 C 538.070312 181.070312 568.929688 211.929688 568.929688 250 Z M 568.929688 250 "/>
<path style=" stroke:none;fill-rule:evenodd;fill:rgb(0%,24.705505%,52.940369%);fill-opacity:1;" d="M 0 275 L 1000 275 L 1000 500 L 0 500 Z M 0 275 "/>
<path style=" stroke:none;fill-rule:evenodd;fill:rgb(99.998474%,99.998474%,99.998474%);fill-opacity:1;" d="M 0 428.574219 C 33.332031 428.574219 66.667969 450 100 450 C 133.332031 450 166.667969 428.574219 200 428.574219 C 233.332031 428.574219 266.667969 450 300 450 C 333.332031 450 366.667969 428.574219 400 428.574219 C 433.332031 428.574219 466.667969 450 500 450 C 533.332031 450 566.667969 428.574219 600 428.574219 C 633.332031 428.574219 666.667969 450 700 450 C 733.332031 450 766.667969 428.574219 800 428.574219 C 833.332031 428.574219 866.667969 450 900 450 C 933.332031 450 966.667969 428.574219 1000 428.574219 L 1000 392.855469 C 966.667969 392.855469 933.332031 414.28125 900 414.28125 C 866.667969 414.28125 833.332031 392.855469 800 392.855469 C 766.667969 392.855469 733.332031 414.28125 700 414.28125 C 666.667969 414.28125 633.332031 392.855469 600 392.855469 C 566.667969 392.855469 533.332031 414.28125 500 414.28125 C 466.667969 414.28125 433.332031 392.855469 400 392.855469 C 366.667969 392.855469 333.332031 414.28125 300 414.28125 C 266.667969 414.28125 233.332031 392.855469 200 392.855469 C 166.667969 392.855469 133.332031 414.28125 100 414.28125 C 66.667969 414.28125 33.332031 392.855469 0 392.855469 Z M 0 428.574219 "/>
<path style="fill-rule:evenodd;fill:rgb(98.822021%,81.959534%,8.627319%);fill-opacity:1;stroke-width:2;stroke-linecap:butt;stroke-linejoin:miter;stroke:rgb(74.116516%,61.175537%,3.137207%);stroke-opacity:1;stroke-miterlimit:4;" d="M 522.664062 83.105469 L 559.628906 83.351562 C 559.863281 81.789062 556.460938 78.671875 553.554688 78.214844 C 544.199219 76.75 537.183594 79.777344 525.824219 79.890625 Z M 522.664062 83.105469 "/>
<path style="fill-rule:evenodd;fill:rgb(98.822021%,81.959534%,8.627319%);fill-opacity:1;stroke-width:2;stroke-linecap:butt;stroke-linejoin:miter;stroke:rgb(74.116516%,61.175537%,3.137207%);stroke-opacity:1;stroke-miterlimit:4;" d="M 449.046875 74.40625 C 457.730469 85.375 474.558594 92.992188 490.640625 93.089844 C 512.304688 93.230469 536.328125 75.691406 565.390625 70.320312 L 470.523438 68.367188 C 458.253906 59.960938 448.941406 61.027344 442.585938 66.242188 L 424.453125 66.789062 C 421.882812 68.1875 426.570312 74.03125 430.371094 74.242188 Z M 449.046875 74.40625 "/>
<path style="fill-rule:evenodd;fill:rgb(98.822021%,81.959534%,8.627319%);fill-opacity:1;stroke-width:2;stroke-linecap:butt;stroke-linejoin:miter;stroke:rgb(74.116516%,61.175537%,3.137207%);stroke-opacity:1;stroke-miterlimit:4;" d="M 491.933594 68.113281 C 488.484375 52.253906 475.757812 45.410156 460.449219 43.382812 C 442.773438 41.039062 402.074219 38.640625 375.046875 30.875 C 386.742188 42.375 411.230469 48.121094 428.246094 50.714844 C 446.265625 53.464844 463.800781 57.472656 477.703125 67.96875 Z M 491.933594 68.113281 "/>
<path style=" stroke:none;fill-rule:evenodd;fill:rgb(98.822021%,81.959534%,8.627319%);fill-opacity:1;" d="M 480.445312 78.703125 C 486.101562 85.960938 494.871094 85.546875 504.296875 79.214844 C 513.695312 72.910156 523.910156 55.136719 528.839844 54.851562 C 563.328125 52.839844 605.046875 38.289062 624.953125 27.042969 C 599.722656 30.613281 574.714844 34.667969 549.265625 34.765625 C 505.851562 34.9375 500.707031 54.710938 483.015625 68.578125 Z M 480.445312 78.703125 "/>
<path style="fill:none;stroke-width:2;stroke-linecap:butt;stroke-linejoin:miter;stroke:rgb(74.116516%,61.175537%,3.137207%);stroke-opacity:1;stroke-miterlimit:4;" d="M 480.445312 78.703125 C 486.101562 85.960938 494.871094 85.546875 504.296875 79.214844 C 513.695312 72.910156 523.910156 55.136719 528.839844 54.851562 C 563.328125 52.839844 605.046875 38.289062 624.953125 27.042969 C 599.722656 30.613281 574.714844 34.667969 549.265625 34.765625 C 505.851562 34.9375 500.707031 54.710938 483.015625 68.578125 "/>
<path style="fill:none;stroke-width:2;stroke-linecap:butt;stroke-linejoin:miter;stroke:rgb(74.116516%,61.175537%,3.137207%);stroke-opacity:1;stroke-miterlimit:4;" d="M 487.183594 70.175781 C 496.433594 64.273438 503.953125 56.582031 512.621094 50.164062 C 526.960938 39.527344 543.539062 39.214844 561.328125 38.996094 C 577.089844 38.800781 604.734375 32.210938 619.726562 28.695312 "/>
<path style="fill:none;stroke-width:2;stroke-linecap:butt;stroke-linejoin:miter;stroke:rgb(74.116516%,61.175537%,3.137207%);stroke-opacity:1;stroke-miterlimit:4;" d="M 477.554688 67.390625 C 474.828125 53.207031 461.546875 48.949219 444.773438 46.402344 C 426.527344 43.628906 407.917969 42.089844 389.710938 37.058594 C 385.199219 35.808594 380.988281 33.609375 376.628906 31.886719 "/>
<path style="fill:none;stroke-width:2;stroke-linecap:butt;stroke-linejoin:miter;stroke:rgb(74.116516%,61.175537%,3.137207%);stroke-opacity:1;stroke-miterlimit:4;" d="M 483.375 88.304688 C 500.488281 89.558594 513.214844 84.417969 527.824219 77.132812 "/>
<path style="fill:none;stroke-width:2;stroke-linecap:butt;stroke-linejoin:miter;stroke:rgb(74.116516%,61.175537%,3.137207%);stroke-opacity:1;stroke-miterlimit:4;" d="M 424.382812 69.71875 L 445.988281 69.71875 "/>
<path style=" stroke:none;fill-rule:evenodd;fill:rgb(74.116516%,61.175537%,3.137207%);fill-opacity:1;" d="M 455.613281 67.398438 C 455.613281 68.886719 454.410156 70.101562 452.914062 70.101562 C 451.425781 70.101562 450.21875 68.886719 450.21875 67.398438 C 450.21875 65.902344 451.425781 64.699219 452.914062 64.699219 C 454.410156 64.699219 455.613281 65.902344 455.613281 67.398438 Z M 455.613281 67.398438 "/>
<path style=" stroke:none;fill-rule:evenodd;fill:rgb(99.998474%,99.998474%,99.998474%);fill-opacity:1;" d="M 0 285.71875 C 33.332031 285.71875 66.667969 307.144531 100 307.144531 C 133.332031 307.144531 166.667969 285.71875 200 285.71875 C 233.332031 285.71875 266.667969 307.144531 300 307.144531 C 333.332031 307.144531 366.667969 285.71875 400 285.71875 C 433.332031 285.71875 466.667969 307.144531 500 307.144531 C 533.332031 307.144531 566.667969 285.71875 600 285.71875 C 633.332031 285.71875 666.667969 307.144531 700 307.144531 C 733.332031 307.144531 766.667969 285.71875 800 285.71875 C 833.332031 285.71875 866.667969 307.144531 900 307.144531 C 933.332031 307.144531 966.667969 285.71875 1000 285.71875 L 1000 250 C 966.667969 250 933.332031 271.425781 900 271.425781 C 866.667969 271.425781 833.332031 250 800 250 C 766.667969 250 733.332031 271.425781 700 271.425781 C 666.667969 271.425781 633.332031 250 600 250 C 566.667969 250 533.332031 271.425781 500 271.425781 C 466.667969 271.425781 433.332031 250 400 250 C 366.667969 250 333.332031 271.425781 300 271.425781 C 266.667969 271.425781 233.332031 250 200 250 C 166.667969 250 133.332031 271.425781 100 271.425781 C 66.667969 271.425781 33.332031 250 0 250 Z M 0 285.71875 "/>
<path style=" stroke:none;fill-rule:evenodd;fill:rgb(99.998474%,99.998474%,99.998474%);fill-opacity:1;" d="M 0 357.144531 C 33.332031 357.144531 66.667969 378.574219 100 378.574219 C 133.332031 378.574219 166.667969 357.144531 200 357.144531 C 233.332031 357.144531 266.667969 378.574219 300 378.574219 C 333.332031 378.574219 366.667969 357.144531 400 357.144531 C 433.332031 357.144531 466.667969 378.574219 500 378.574219 C 533.332031 378.574219 566.667969 357.144531 600 357.144531 C 633.332031 357.144531 666.667969 378.574219 700 378.574219 C 733.332031 378.574219 766.667969 357.144531 800 357.144531 C 833.332031 357.144531 866.667969 378.574219 900 378.574219 C 933.332031 378.574219 966.667969 357.144531 1000 357.144531 L 1000 321.425781 C 966.667969 321.425781 933.332031 342.855469 900 342.855469 C 866.667969 342.855469 833.332031 321.425781 800 321.425781 C 766.667969 321.425781 733.332031 342.855469 700 342.855469 C 666.667969 342.855469 633.332031 321.425781 600 321.425781 C 566.667969 321.425781 533.332031 342.855469 500 342.855469 C 466.667969 342.855469 433.332031 321.425781 400 321.425781 C 366.667969 321.425781 333.332031 342.855469 300 342.855469 C 266.667969 342.855469 233.332031 321.425781 200 321.425781 C 166.667969 321.425781 133.332031 342.855469 100 342.855469 C 66.667969 342.855469 33.332031 321.425781 0 321.425781 Z M 0 357.144531 "/>
</g>
</svg>
